X:90
T:Ffoles Llantrisant - The Foolish Girl of Llantrisant
M:3/4
L:1/4
Q:90
C:Trad.
R:Waltz
K:D
F G A | A2 A | F G A | A2 A | B A G
| F2 E | D E D | F2 D :||: E C
D | E C D | E C D | E F G | A
G F | F2 E | D E D | F2 D
:||
